X:93
T:Noble Peasant. THO5.093, The
M:6/8
L:1/8
B:Thompson's Complete Collection of 200 Favourite Dances Vol.5
F:https://www.libraryofdance.org/manuals/1780c-Thompson-Compleat-5.pdf
Z:vmp. Peter Dunk 2024
Q:3/8=110
K:Bb
b2f dBd|f2d f2d|b2f dBd|c2A c2A|
b2f dBd|f2d f2d|gfe dec|B3 B,3:|
|:DFB DFB|EGB EGB|Ace ecA|Bdf f3|
DFB DFB|EGB EGB|Ace ecA|B3 B,3:|
W:
W:Cast off two Couple and turn ./.
W:cast up to the top and turn ./:
W:cross over two Couples, lead up one :/.
W:Right and Left :/:

